svg/color/tmon.svg

<svg width="40" height="40" viewBox="0 0 40 40" fill="none" xmlns="http://www.w3.org/2000/svg">
<g clip-path="url(#clip0_819_3747)">
<path d="M20 0C31.0457 0 40 8.9543 40 20C40 31.0457 31.0457 40 20 40C8.95431 40 7.90517e-06 31.0457 0 20C6.58765e-07 8.95431 8.95431 1.97595e-06 20 0Z" fill="#FBCED2"/>
<path d="M26 6C30.4183 6 34 9.58172 34 14V26C34 30.4183 30.4183 34 26 34H14C9.58172 34 6 30.4183 6 26V14C6 9.58172 9.58172 6 14 6H26Z" fill="#EB0A1E"/>
<path d="M20 13.2067C14.3525 13.2067 10 16.0817 10 20C10 23.9183 14.3533 26.7933 20 26.7933C25.6467 26.7933 30 23.9183 30 20C30 16.0817 25.6475 13.2067 20 13.2067ZM26.1117 16.4058C26.1117 17.3058 24.6742 18 22.3717 18.2775C22.155 16.1275 21.5342 14.7117 20.7358 14.1833C23.1925 14.3367 26.1117 15.2058 26.1117 16.4058ZM20 23.6675C19.2 23.6675 18.545 22.4175 18.4933 20.01C18.9742 20.0492 19.4767 20.07 20 20.07C20.5233 20.07 21.025 20.0492 21.5058 20.01C21.455 22.4183 20.8 23.6675 20 23.6675ZM20 18.4108C19.5083 18.4108 19.0375 18.395 18.5917 18.3658C18.8092 16.9258 19.3583 15.7408 20 15.7408C20.6417 15.7408 21.19 16.9258 21.4075 18.3658C20.9617 18.3942 20.4917 18.4108 20 18.4108ZM19.265 14.1817C18.4683 14.7092 17.8433 16.1258 17.6283 18.2775C15.3258 18 13.8875 17.3058 13.8875 16.4058C13.8875 15.2058 16.8075 14.3308 19.265 14.1817ZM11.6975 19.7333C11.6954 18.7831 12.0019 17.8578 12.5708 17.0967C12.7958 18.3858 14.6725 19.4975 17.5475 19.905V20C17.5475 23.1433 18.28 25.1692 19.2867 25.8083C15.0308 25.5408 11.6975 22.9083 11.6975 19.7333ZM20.7167 25.8083C21.7225 25.1692 22.4558 23.1433 22.4558 20V19.9042C25.3283 19.4975 27.2092 18.3825 27.4325 17.0958C28.0022 17.8569 28.309 18.7826 28.3067 19.7333C28.3033 22.9083 24.9675 25.5408 20.7167 25.8083Z" fill="white"/>
</g>
<defs>
<clipPath id="clip0_819_3747">
<rect width="40" height="40" fill="white"/>
</clipPath>
</defs>
</svg>

<svg xmlns="http://www.w3.org/2000/svg" width="40" height="40" fill="none" viewBox="0 0 40 40"><g clip-path="url(#tmon_svg-a)"><path fill="#FBCED2" d="M20 0c11.046 0 20 8.954 20 20s-8.954 20-20 20S0 31.046 0 20 8.954 0 20 0"/><path fill="#EB0A1E" d="M26 6a8 8 0 0 1 8 8v12a8 8 0 0 1-8 8H14a8 8 0 0 1-8-8V14a8 8 0 0 1 8-8z"/><path fill="#fff" d="M20 13.207c-5.648 0-10 2.875-10 6.793s4.353 6.793 10 6.793S30 23.918 30 20s-4.352-6.793-10-6.793m6.112 3.199c0 .9-1.438 1.594-3.74 1.872-.217-2.15-.838-3.566-1.636-4.095 2.456.154 5.376 1.023 5.376 2.223M20 23.668c-.8 0-1.455-1.25-1.507-3.658a18.6 18.6 0 0 0 3.013 0c-.051 2.408-.706 3.657-1.506 3.657m0-5.257q-.738 0-1.408-.045c.217-1.44.766-2.625 1.408-2.625s1.19 1.185 1.407 2.625q-.668.044-1.407.045m-.735-4.23c-.797.528-1.422 1.945-1.637 4.097-2.302-.278-3.74-.972-3.74-1.872 0-1.2 2.92-2.075 5.377-2.224m-7.568 5.552a4.4 4.4 0 0 1 .874-2.636c.225 1.289 2.101 2.4 4.977 2.808V20c0 3.143.732 5.17 1.739 5.808-4.256-.267-7.59-2.9-7.59-6.075m9.02 6.075c1.006-.639 1.739-2.665 1.739-5.808v-.096c2.872-.407 4.753-1.521 4.977-2.808.57.76.876 1.687.874 2.637-.004 3.175-3.34 5.808-7.59 6.075"/></g><defs><clipPath id="tmon_svg-a"><path fill="#fff" d="M0 0h40v40H0z"/></clipPath></defs></svg>
